X:1
T:Cauld Kail [1]
L:1/8
M:2/4
I:linebreak $
K:D
V:1 treble 
V:1
 D | (F>A)d>B | A>FE>D | FA B/c/d/B/ | A2 D z/ D/ | F>Gd>B | GFE>D | FA B/c/d/B/ | A2 D || A |$ %10
 d>ef>d | e>cBA | d>ef>d | e>cA>A | d>ef>d | ge !fermata!c (e/d/c/B/) | A>Fd>B | A2 D || %18
